demo/img/redNumbers/0.svg

<?xml version="1.0" encoding="UTF-8"?>
<svg width="155px" height="163px" viewBox="0 0 155 163" version="1.1" xmlns="http://www.w3.org/2000/svg" xmlns:xlink="http://www.w3.org/1999/xlink">
    <!-- Generator: Sketch 52.6 (67491) - http://www.bohemiancoding.com/sketch -->
    <title>0</title>
    <desc>Created with Sketch.</desc>
    <g id="-" stroke="none" stroke-width="1" fill="none" fill-rule="evenodd" fill-opacity="0">
        <path d="M77.40525,161.856381 C61.528504,161.856381 47.8169744,158.464582 36.27025,151.680881 C24.7235256,144.897181 15.9192803,135.407359 9.85725,123.211131 C3.79521969,111.014904 0.76425,96.9786273 0.76425,81.1018812 C0.76425,65.2251352 3.79521969,51.1888589 9.85725,38.9926312 C15.9192803,26.7964036 24.7235256,17.3065818 36.27025,10.5228812 C47.8169744,3.73918063 61.528504,0.347381217 77.40525,0.347381217 C93.2819961,0.347381217 106.993526,3.73918063 118.54025,10.5228812 C130.086974,17.3065818 138.89122,26.7964036 144.95325,38.9926312 C151.01528,51.1888589 154.04625,65.2251352 154.04625,81.1018812 C154.04625,96.9786273 151.01528,111.014904 144.95325,123.211131 C138.89122,135.407359 130.086974,144.897181 118.54025,151.680881 C106.993526,158.464582 93.2819961,161.856381 77.40525,161.856381 Z M77.40525,144.536381 C88.6633063,144.536381 98.4057089,142.010573 106.63275,136.958881 C114.859791,131.907189 121.138228,124.979259 125.46825,116.174881 C129.798272,107.370504 131.96325,97.4116035 131.96325,86.2978812 L131.96325,75.9058812 C131.96325,64.792159 129.798272,54.8332586 125.46825,46.0288812 C121.138228,37.2245039 114.859791,30.2965731 106.63275,25.2448812 C98.4057089,20.1931893 88.6633063,17.6673812 77.40525,17.6673812 C66.1471937,17.6673812 56.4047911,20.1931893 48.17775,25.2448812 C39.9507089,30.2965731 33.6722717,37.2245039 29.34225,46.0288812 C25.0122284,54.8332586 22.84725,64.792159 22.84725,75.9058812 L22.84725,86.2978812 C22.84725,97.4116035 25.0122284,107.370504 29.34225,116.174881 C33.6722717,124.979259 39.9507089,131.907189 48.17775,136.958881 C56.4047911,142.010573 66.1471937,144.536381 77.40525,144.536381 Z" id="0" stroke="#870000" stroke-width="0.3" fill="#171717"></path>
    </g>
</svg>

<?xml version="1.0" encoding="utf-8"?>
<!-- Generator: Adobe Illustrator 16.0.0, SVG Export Plug-In . SVG Version: 6.00 Build 0)  -->
<!DOCTYPE svg PUBLIC "-//W3C//DTD SVG 1.1//EN" "http://www.w3.org/Graphics/SVG/1.1/DTD/svg11.dtd">
<svg version="1.1" id="Capa_1" xmlns="http://www.w3.org/2000/svg" xmlns:xlink="http://www.w3.org/1999/xlink" x="0px" y="0px"
	 width="155px" height="163px" viewBox="0 0 155 163" enable-background="new 0 0 155 163" xml:space="preserve">
<title>0</title>
<desc>Created with Sketch.</desc>
<g id="_x2D_">
	<path id="_x30_" fill="#171717" fill-opacity="0" stroke="#1E7498" stroke-width="0.3" d="M77.405,161.856
		c-15.877,0-29.588-3.392-41.135-10.176c-11.547-6.784-20.351-16.273-26.413-28.47S0.764,96.979,0.764,81.102
		c0-15.877,3.031-29.913,9.093-42.109s14.866-21.686,26.413-28.47C47.817,3.739,61.528,0.347,77.405,0.347
		s29.589,3.392,41.135,10.176c11.547,6.784,20.351,16.273,26.413,28.47s9.094,26.232,9.094,42.109
		c0,15.876-3.031,29.913-9.094,42.109s-14.866,21.686-26.413,28.47C106.994,158.465,93.282,161.856,77.405,161.856z M77.405,144.536
		c11.258,0,21.001-2.525,29.228-7.577s14.506-11.979,18.836-20.784c4.33-8.804,6.494-18.763,6.494-29.877V75.906
		c0-11.114-2.164-21.073-6.494-29.877s-10.609-15.732-18.836-20.784c-8.227-5.052-17.97-7.578-29.228-7.578
		c-11.258,0-21,2.526-29.228,7.578c-8.227,5.051-14.505,11.979-18.835,20.784s-6.495,18.763-6.495,29.877v10.392
		c0,11.114,2.165,21.073,6.495,29.877c4.33,8.805,10.608,15.732,18.835,20.784S66.147,144.536,77.405,144.536z"/>
</g>
</svg>
